; generated by PrusaSlicer 2.2.0-alpha2+linux-x64 on 2020-02-07 at 04:18:17 UTC

; 

; external perimeters extrusion width = 0.45mm
; perimeters extrusion width = 0.45mm
; infill extrusion width = 0.45mm
; solid infill extrusion width = 0.45mm
; top infill extrusion width = 0.40mm
; first layer extrusion width = 0.42mm

M107
M190 S60 ; set bed temperature and wait for it to be reached
M104 S245 ; set temperature
G28 ; home all axes
G1 Z5 F5000 ; lift nozzle
M109 S245 ; set temperature and wait for it to be reached
G21 ; set units to millimeters
G90 ; use absolute coordinates
M82 ; use absolute distances for extrusion
G92 E0
; Filament gcode
G1 Z0.350 F7800.000
G1 E-2.00000 F2400.00000
G92 E0
G1 X78.394 Y59.520 F7800.000
G1 E2.00000 F2400.00000
G1 F1800.000
G1 X79.127 Y58.158 E2.07767
G1 X79.826 Y57.245 E2.13537
G1 X80.859 Y56.341 E2.20425
G1 X82.274 Y55.530 E2.28610
G1 X83.483 Y55.130 E2.35001
G1 X85.039 Y54.914 E2.42883
G1 X168.010 Y54.912 E6.59281
G1 X169.210 Y55.028 E6.65331
G1 X170.706 Y55.434 E6.73113
G1 X172.074 Y56.156 E6.80875
G1 X173.092 Y56.950 E6.87352
G1 X173.920 Y57.917 E6.93743
G1 X174.709 Y59.275 E7.01625
G1 X175.100 Y60.415 E7.07674
G1 X175.338 Y61.902 E7.15228
G1 X175.347 Y145.200 E11.33270
G1 X175.146 Y146.693 E11.40829
G1 X174.814 Y147.794 E11.46599
G1 X174.080 Y149.156 E11.54367
G1 X173.381 Y150.070 E11.60137
G1 X172.333 Y150.984 E11.67118
G1 X170.882 Y151.807 E11.75488
G1 X169.645 Y152.201 E11.82004
G1 X168.032 Y152.402 E11.90163
G1 X85.060 Y152.400 E16.06562
G1 X83.596 Y152.208 E16.13973
G1 X82.495 Y151.878 E16.19743
G1 X81.170 Y151.181 E16.27255
G1 X80.201 Y150.445 E16.33360
G1 X79.297 Y149.412 E16.40249
G1 X78.463 Y147.959 E16.48657
G1 X78.068 Y146.723 E16.55173
G1 X77.859 Y145.083 E16.63468
G1 X77.860 Y62.114 E20.79856
G1 X78.062 Y60.621 E20.87416
G1 X78.376 Y59.578 E20.92885
G1 E18.92885 F2400.00000
G92 E0
G1 X162.094 Y139.131 F7800.000
G1 E2.00000 F2400.00000
G1 F1800.000
G1 X161.965 Y139.157 E2.00662
G1 X91.130 Y139.147 E5.56155
G1 X91.103 Y139.018 E5.56817
G1 X91.113 Y68.183 E9.12309
G1 X91.242 Y68.157 E9.12971
G1 X162.057 Y68.168 E12.68362
G1 X162.104 Y68.292 E12.69029
G1 X162.099 Y139.071 E16.24239
G1 X162.164 Y139.469 F7800.000
G1 F1800.000
G1 X161.980 Y139.502 E16.25180
G1 X91.228 Y139.502 E19.80256
G1 X91.054 Y139.474 E19.81139
G1 X90.914 Y139.392 E19.81950
G1 X90.791 Y139.218 E19.83021
G1 X90.758 Y139.033 E19.83963
G1 X90.758 Y68.281 E23.39038
G1 X90.787 Y68.107 E23.39922
G1 X90.868 Y67.968 E23.40733
G1 X91.043 Y67.845 E23.41804
G1 X91.227 Y67.812 E23.42746
G1 X162.082 Y67.823 E26.98337
G1 X162.185 Y67.854 E26.98872
G1 X162.331 Y67.960 E26.99783
G1 X162.426 Y68.131 E27.00765
G1 X162.449 Y68.279 E27.01514
G1 X162.449 Y139.033 E30.56601
G1 X162.440 Y139.133 E30.57105
G1 X162.389 Y139.274 E30.57856
G1 X162.339 Y139.346 E30.58299
G1 X162.219 Y139.444 E30.59076
G1 E28.59076 F2400.00000
G92 E0
G1 X162.249 Y67.507 F7800.000
G1 E2.00000 F2400.00000
G1 F1800.000
G1 X162.354 Y67.551 E2.00572
G1 X162.567 Y67.705 E2.01893
G1 X162.637 Y67.787 E2.02433
G1 X162.751 Y68.008 E2.03681
G1 X162.794 Y68.265 E2.04989
G1 X162.794 Y139.048 E5.60218
G1 X162.746 Y139.324 E5.61625
G1 X162.689 Y139.447 E5.62304
G1 X162.603 Y139.570 E5.63059
G1 X162.506 Y139.665 E5.63739
G1 X162.284 Y139.794 E5.65028
G1 X162.138 Y139.835 E5.65789
G1 X161.994 Y139.847 E5.66512
G1 X91.213 Y139.847 E9.21737
G1 X90.936 Y139.800 E9.23144
G1 X90.814 Y139.743 E9.23822
G1 X90.690 Y139.656 E9.24578
G1 X90.595 Y139.560 E9.25258
G1 X90.467 Y139.338 E9.26547
G1 X90.426 Y139.191 E9.27308
G1 X90.414 Y139.048 E9.28031
G1 X90.414 Y68.266 E12.83256
G1 X90.461 Y67.990 E12.84663
G1 X90.518 Y67.867 E12.85341
G1 X90.604 Y67.744 E12.86097
G1 X90.701 Y67.649 E12.86777
G1 X90.923 Y67.520 E12.88065
G1 X91.069 Y67.479 E12.88827
G1 X91.213 Y67.467 E12.89549
G1 X162.121 Y67.478 E16.45407
G1 X162.190 Y67.494 E16.45766
G1 X162.278 Y67.617 F7800.000
G1 E14.45766 F2400.00000
G92 E0
G1 X91.905 Y139.044 F7800.000
G1 E2.00000 F2400.00000
G1 F1800.000
G1 X91.362 Y138.501 E2.03859
G1 X91.362 Y138.013 E2.06313
G1 X92.238 Y138.889 E2.12539
G1 X92.727 Y138.889 E2.14994
G1 X91.362 Y137.525 E2.24691
G1 X91.362 Y137.036 E2.27145
G1 X93.215 Y138.889 E2.40314
G1 X93.704 Y138.889 E2.42768
G1 X91.362 Y136.548 E2.59408
G1 X91.362 Y136.060 E2.61862
G1 X94.192 Y138.889 E2.81972
G1 X94.681 Y138.889 E2.84427
G1 X91.362 Y135.571 E3.08008
G1 X91.362 Y135.083 E3.10462
G1 X95.169 Y138.889 E3.37514
G1 X95.657 Y138.889 E3.39969
G1 X91.363 Y134.595 E3.70492
G1 X91.363 Y134.106 E3.72946
G1 X96.146 Y138.890 E4.06940
G1 X96.634 Y138.890 E4.09394
G1 X91.363 Y133.618 E4.46859
G1 X91.363 Y133.130 E4.49313
G1 X97.123 Y138.890 E4.90249
G1 X97.611 Y138.890 E4.92704
G1 X91.363 Y132.641 E5.37111
G1 X91.363 Y132.153 E5.39565
G1 X98.100 Y138.890 E5.87443
G1 X98.588 Y138.890 E5.89898
G1 X91.363 Y131.665 E6.41246
G1 X91.363 Y131.176 E6.43700
G1 X99.077 Y138.890 E6.98520
G1 X99.565 Y138.890 E7.00975
G1 X91.363 Y130.688 E7.59266
G1 X91.363 Y130.200 E7.61720
G1 X100.054 Y138.890 E8.23481
G1 X100.542 Y138.890 E8.25936
G1 X91.363 Y129.711 E8.91169
G1 X91.363 Y129.223 E8.93623
G1 X101.031 Y138.890 E9.62326
G1 X101.519 Y138.890 E9.64781
G1 X91.363 Y128.735 E10.36955
G1 X91.363 Y128.246 E10.39409
G1 X102.008 Y138.890 E11.15055
G1 X102.496 Y138.890 E11.17509
G1 X91.364 Y127.758 E11.96626
G1 X91.364 Y127.270 E11.99080
G1 X102.984 Y138.890 E12.81667
G1 X103.473 Y138.891 E12.84122
G1 X91.364 Y126.781 E13.70180
G1 X91.364 Y126.293 E13.72634
G1 X103.961 Y138.891 E14.62164
G1 X104.450 Y138.891 E14.64618
G1 X91.364 Y125.805 E15.57618
G1 X91.364 Y125.316 E15.60072
G1 X104.938 Y138.891 E16.56544
G1 X105.427 Y138.891 E16.58998
G1 X91.364 Y124.828 E17.58940
G1 X91.364 Y124.340 E17.61394
G1 X105.915 Y138.891 E18.64808
G1 X106.404 Y138.891 E18.67262
G1 X91.364 Y123.851 E19.74146
G1 X91.364 Y123.363 E19.76600
G1 X106.892 Y138.891 E20.86955
G1 X107.381 Y138.891 E20.89410
G1 X91.364 Y122.875 E22.03236
G1 X91.364 Y122.386 E22.05690
G1 X107.869 Y138.891 E23.22987
G1 X108.358 Y138.891 E23.25441
G1 X91.364 Y121.898 E24.46209
G1 X91.364 Y121.410 E24.48663
G1 X108.846 Y138.891 E25.72902
G1 X109.334 Y138.891 E25.75357
G1 X91.364 Y120.921 E27.03066
G1 X91.365 Y120.433 E27.05520
G1 X109.823 Y138.891 E28.36701
G1 X110.311 Y138.891 E28.39156
G1 X91.365 Y119.945 E29.73807
G1 X91.365 Y119.456 E29.76261
G1 X110.800 Y138.892 E31.14384
G1 X111.288 Y138.892 E31.16839
G1 X91.365 Y118.968 E32.58432
G1 X91.365 Y118.480 E32.60886
G1 X111.777 Y138.892 E34.05951
G1 X112.265 Y138.892 E34.08405
G1 X91.365 Y117.991 E35.56941
G1 X91.365 Y117.503 E35.59395
G1 X112.754 Y138.892 E37.11401
G1 X113.242 Y138.892 E37.13856
G1 X91.365 Y117.015 E38.69333
G1 X91.365 Y116.526 E38.71787
G1 X113.731 Y138.892 E40.30735
G1 X114.219 Y138.892 E40.33190
G1 X91.365 Y116.038 E41.95609
G1 X91.365 Y115.550 E41.98063
G1 X114.708 Y138.892 E43.63954
G1 X115.196 Y138.892 E43.66408
G1 X91.365 Y115.061 E45.35769
G1 X91.365 Y114.573 E45.38223
G1 X115.685 Y138.892 E47.11055
G1 X116.173 Y138.892 E47.13510
G1 X91.365 Y114.085 E48.89813
G1 X91.365 Y113.596 E48.92267
G1 X116.661 Y138.892 E50.72041
G1 X117.150 Y138.892 E50.74496
G1 X91.366 Y113.108 E52.57741
G1 X91.366 Y112.620 E52.60195
G1 X117.638 Y138.892 E54.46911
G1 X118.127 Y138.893 E54.49365
G1 X91.366 Y112.131 E56.39552
G1 X91.366 Y111.643 E56.42006
G1 X118.615 Y138.893 E58.35664
G1 X119.104 Y138.893 E58.38119
G1 X91.366 Y111.155 E60.35247
G1 X91.366 Y110.666 E60.37701
G1 X119.592 Y138.893 E62.38301
G1 X120.081 Y138.893 E62.40756
G1 X91.366 Y110.178 E64.44826
G1 X91.366 Y109.690 E64.47280
G1 X120.569 Y138.893 E66.54822
G1 X121.058 Y138.893 E66.57277
G1 X91.366 Y109.201 E68.68289
G1 X91.366 Y108.713 E68.70743
G1 X121.546 Y138.893 E70.85227
G1 X122.035 Y138.893 E70.87681
G1 X91.366 Y108.225 E73.05636
G1 X91.366 Y107.736 E73.08090
G1 X122.523 Y138.893 E75.29515
G1 X123.011 Y138.893 E75.31970
G1 X91.366 Y107.248 E77.56866
G1 X91.366 Y106.760 E77.59320
G1 X123.500 Y138.893 E79.87688
G1 X123.988 Y138.893 E79.90142
G1 X91.366 Y106.271 E82.21980
G1 X91.367 Y105.783 E82.24434
G1 X124.477 Y138.893 E84.59744
G1 X124.965 Y138.894 E84.62198
G1 X91.367 Y105.295 E87.00978
G1 X91.367 Y104.806 E87.03432
G1 X125.454 Y138.894 E89.45684
G1 X125.942 Y138.894 E89.48138
G1 X91.367 Y104.318 E91.93860
G1 X91.367 Y103.830 E91.96314
G1 X126.431 Y138.894 E94.45507
G1 X126.919 Y138.894 E94.47962
G1 X91.367 Y103.341 E97.00626
G1 X91.367 Y102.853 E97.03080
G1 X127.408 Y138.894 E99.59215
G1 X127.896 Y138.894 E99.61669
G1 X91.367 Y102.365 E102.21275
G1 X91.367 Y101.876 E102.23729
G1 X128.385 Y138.894 E104.86806
G1 X128.873 Y138.894 E104.89261
G1 X91.367 Y101.388 E107.55809
G1 X91.367 Y100.900 E107.58263
G1 X129.362 Y138.894 E110.28281
G1 X129.850 Y138.894 E110.30736
G1 X91.367 Y100.411 E113.04226
G1 X91.367 Y99.923 E113.06680
G1 X130.338 Y138.894 E115.83640
G1 X130.827 Y138.894 E115.86095
G1 X91.367 Y99.435 E118.66526
G1 X91.367 Y98.946 E118.68980
G1 X131.315 Y138.894 E121.52883
G1 X131.804 Y138.894 E121.55338
G1 X91.368 Y98.458 E124.42711
G1 X91.368 Y97.970 E124.45165
G1 X132.292 Y138.895 E127.36009
G1 X132.781 Y138.895 E127.38464
G1 X91.368 Y97.481 E130.32779
G1 X91.368 Y96.993 E130.35233
G1 X133.269 Y138.895 E133.33020
G1 X133.758 Y138.895 E133.35474
G1 X91.368 Y96.505 E136.36732
G1 X91.368 Y96.017 E136.39186
G1 X134.246 Y138.895 E139.43914
G1 X134.735 Y138.895 E139.46369
G1 X91.368 Y95.528 E142.54568
G1 X91.368 Y95.040 E142.57022
G1 X135.223 Y138.895 E145.68692
G1 X135.712 Y138.895 E145.71146
G1 X91.368 Y94.552 E148.86288
G1 X91.368 Y94.063 E148.88741
G1 X136.200 Y138.895 E152.07354
G1 X136.688 Y138.895 E152.09808
G1 X91.368 Y93.575 E155.31891
G1 X91.368 Y93.087 E155.34345
G1 X137.177 Y138.895 E158.59899
G1 X137.665 Y138.895 E158.62354
G1 X91.368 Y92.598 E161.91379
G1 X91.368 Y92.110 E161.93833
G1 X138.154 Y138.895 E165.26328
G1 X138.642 Y138.895 E165.28783
G1 X91.368 Y91.622 E168.64750
G1 X91.369 Y91.133 E168.67204
G1 X139.131 Y138.895 E172.06642
G1 X139.619 Y138.896 E172.09096
G1 X91.369 Y90.645 E175.52005
G1 X91.369 Y90.157 E175.54459
G1 X140.108 Y138.896 E179.00838
G1 X140.596 Y138.896 E179.03293
G1 X91.369 Y89.668 E182.53144
G1 X91.369 Y89.180 E182.55598
G1 X141.085 Y138.896 E186.08919
G1 X141.573 Y138.896 E186.11374
G1 X91.369 Y88.692 E189.68166
G1 X91.369 Y88.203 E189.70620
G1 X142.062 Y138.896 E193.30884
G1 X142.550 Y138.896 E193.33338
G1 X91.369 Y87.715 E196.97073
G1 X91.369 Y87.227 E196.99527
G1 X143.039 Y138.896 E200.66732
G1 X143.527 Y138.896 E200.69187
G1 X91.369 Y86.738 E204.39863
G1 X91.369 Y86.250 E204.42317
G1 X144.015 Y138.896 E208.16464
G1 X144.504 Y138.896 E208.18919
G1 X91.369 Y85.762 E211.96537
G1 X91.369 Y85.273 E211.98991
G1 X144.992 Y138.896 E215.80080
G1 X145.481 Y138.896 E215.82535
G1 X91.369 Y84.785 E219.67095
G1 X91.370 Y84.297 E219.69549
G1 X145.969 Y138.896 E223.57580
G1 X146.458 Y138.896 E223.60035
G1 X91.370 Y83.808 E227.51537
G1 X91.370 Y83.320 E227.53991
G1 X146.946 Y138.897 E231.48963
G1 X147.435 Y138.897 E231.51418
G1 X91.370 Y82.832 E235.49862
G1 X91.370 Y82.343 E235.52316
G1 X147.923 Y138.897 E239.54231
G1 X148.412 Y138.897 E239.56685
G1 X91.370 Y81.855 E243.62071
G1 X91.370 Y81.367 E243.64525
G1 X148.900 Y138.897 E247.73382
G1 X149.389 Y138.897 E247.75837
G1 X91.370 Y80.878 E251.88164
G1 X91.370 Y80.390 E251.90618
G1 X149.877 Y138.897 E256.06417
G1 X150.366 Y138.897 E256.08872
G1 X91.370 Y79.902 E260.28141
G1 X91.370 Y79.413 E260.30595
G1 X150.854 Y138.897 E264.53336
G1 X151.342 Y138.897 E264.55790
G1 X91.370 Y78.925 E268.82002
G1 X91.370 Y78.437 E268.84456
G1 X151.831 Y138.897 E273.14138
G1 X152.319 Y138.897 E273.16593
G1 X91.370 Y77.948 E277.49746
G1 X91.370 Y77.460 E277.52200
G1 X152.808 Y138.897 E281.88825
G1 X153.296 Y138.897 E281.91279
G1 X91.371 Y76.972 E286.31375
G1 X91.371 Y76.483 E286.33829
G1 X153.785 Y138.897 E290.77395
G1 X154.273 Y138.898 E290.79849
G1 X91.371 Y75.995 E295.26887
G1 X91.371 Y75.507 E295.29341
G1 X154.762 Y138.898 E299.79849
G1 X155.250 Y138.898 E299.82303
G1 X91.371 Y75.018 E304.36282
G1 X91.371 Y74.530 E304.38736
G1 X155.739 Y138.898 E308.96187
G1 X156.227 Y138.898 E308.98641
G1 X91.371 Y74.042 E313.59562
G1 X91.371 Y73.553 E313.62016
G1 X156.716 Y138.898 E318.26408
G1 X157.204 Y138.898 E318.28863
G1 X91.371 Y73.065 E322.96726
G1 X91.371 Y72.577 E322.99180
G1 X157.692 Y138.898 E327.70513
G1 X158.181 Y138.898 E327.72968
G1 X91.371 Y72.088 E332.47773
G1 X91.371 Y71.600 E332.50227
G1 X158.669 Y138.898 E337.28503
G1 X159.158 Y138.898 E337.30957
G1 X91.371 Y71.112 E342.12704
G1 X91.371 Y70.623 E342.15158
G1 X159.646 Y138.898 E347.00376
G1 X160.135 Y138.898 E347.02830
G1 X91.371 Y70.135 E351.91519
G1 X91.372 Y69.647 E351.93973
G1 X160.623 Y138.898 E356.86132
G1 X161.112 Y138.898 E356.88587
G1 X91.372 Y69.158 E361.84218
G1 X91.372 Y68.670 E361.86672
G1 X161.600 Y138.899 E366.85773
G1 X161.835 Y138.899 E366.86955
G1 X161.835 Y138.645 E366.88227
G1 X91.606 Y68.416 E371.87338
G1 X92.094 Y68.416 E371.89793
G1 X161.835 Y138.157 E376.85433
G1 X161.836 Y137.669 E376.87887
G1 X92.583 Y68.416 E381.80055
G1 X93.071 Y68.416 E381.82510
G1 X161.836 Y137.180 E386.71208
G1 X161.836 Y136.692 E386.73662
G1 X93.559 Y68.416 E391.58889
G1 X94.048 Y68.416 E391.61343
G1 X161.836 Y136.204 E396.43099
G1 X161.836 Y135.715 E396.45553
G1 X94.536 Y68.416 E401.23838
G1 X95.025 Y68.416 E401.26292
G1 X161.836 Y135.227 E406.01106
G1 X161.836 Y134.739 E406.03560
G1 X95.513 Y68.416 E410.74903
G1 X96.002 Y68.416 E410.77358
G1 X161.836 Y134.250 E415.45229
G1 X161.836 Y133.762 E415.47683
G1 X96.490 Y68.416 E420.12084
G1 X96.979 Y68.416 E420.14539
G1 X161.836 Y133.274 E424.75468
G1 X161.836 Y132.785 E424.77922
G1 X97.467 Y68.416 E429.35381
G1 X97.956 Y68.417 E429.37836
G1 X161.836 Y132.297 E433.91823
G1 X161.836 Y131.809 E433.94277
G1 X98.444 Y68.417 E438.44794
G1 X98.933 Y68.417 E438.47249
G1 X161.836 Y131.320 E442.94294
G1 X161.836 Y130.832 E442.96748
G1 X99.421 Y68.417 E447.40323
G1 X99.910 Y68.417 E447.42778
G1 X161.837 Y130.344 E451.82881
G1 X161.837 Y129.855 E451.85335
G1 X100.398 Y68.417 E456.21968
G1 X100.887 Y68.417 E456.24422
G1 X161.837 Y129.367 E460.57584
G1 X161.837 Y128.879 E460.60038
G1 X101.375 Y68.417 E464.89729
G1 X101.863 Y68.417 E464.92183
G1 X161.837 Y128.390 E469.18403
G1 X161.837 Y127.902 E469.20857
G1 X102.352 Y68.417 E473.43605
G1 X102.840 Y68.417 E473.46060
G1 X161.837 Y127.414 E477.65338
G1 X161.837 Y126.925 E477.67792
G1 X103.329 Y68.417 E481.83598
G1 X103.817 Y68.417 E481.86053
G1 X161.837 Y126.437 E485.98388
G1 X161.837 Y125.949 E486.00842
G1 X104.306 Y68.418 E490.09707
G1 X104.794 Y68.418 E490.12161
G1 X161.837 Y125.460 E494.17555
G1 X161.837 Y124.972 E494.20009
G1 X105.283 Y68.418 E498.21931
G1 X105.771 Y68.418 E498.24386
G1 X161.837 Y124.484 E502.22837
G1 X161.837 Y123.995 E502.25291
G1 X106.260 Y68.418 E506.20272
G1 X106.748 Y68.418 E506.22727
G1 X161.837 Y123.507 E510.14236
G1 X161.838 Y123.019 E510.16690
G1 X107.237 Y68.418 E514.04728
G1 X107.725 Y68.418 E514.07183
G1 X161.838 Y122.530 E517.91751
G1 X161.838 Y122.042 E517.94205
G1 X108.214 Y68.418 E521.75301
G1 X108.702 Y68.418 E521.77756
G1 X161.838 Y121.554 E525.55381
G1 X161.838 Y121.065 E525.57835
G1 X109.191 Y68.418 E529.31989
G1 X109.679 Y68.418 E529.34444
G1 X161.838 Y120.577 E533.05127
G1 X161.838 Y120.089 E533.07581
G1 X110.168 Y68.418 E536.74794
G1 X110.656 Y68.418 E536.77248
G1 X161.838 Y119.601 E540.40990
G1 X161.838 Y119.112 E540.43444
G1 X111.144 Y68.419 E544.03714
G1 X111.633 Y68.419 E544.06169
G1 X161.838 Y118.624 E547.62968
G1 X161.838 Y118.136 E547.65422
G1 X112.121 Y68.419 E551.18750
G1 X112.610 Y68.419 E551.21205
G1 X161.838 Y117.647 E554.71062
G1 X161.838 Y117.159 E554.73516
G1 X113.098 Y68.419 E558.19902
G1 X113.587 Y68.419 E558.22357
G1 X161.838 Y116.671 E561.65272
G1 X161.838 Y116.182 E561.67726
G1 X114.075 Y68.419 E565.07171
G1 X114.564 Y68.419 E565.09625
G1 X161.839 Y115.694 E568.45598
G1 X161.839 Y115.206 E568.48052
G1 X115.052 Y68.419 E571.80555
G1 X115.541 Y68.419 E571.83009
G1 X161.839 Y114.717 E575.12041
G1 X161.839 Y114.229 E575.14495
G1 X116.029 Y68.419 E578.40055
