; generated by PrusaSlicer 2.2.0-alpha2+linux-x64 on 2020-02-10 at 23:45:13 UTC

; 

; external perimeters extrusion width = 0.45mm
; perimeters extrusion width = 0.45mm
; infill extrusion width = 0.45mm
; solid infill extrusion width = 0.45mm
; top infill extrusion width = 0.40mm
; first layer extrusion width = 0.42mm

M107
M190 S40 ; set bed temperature and wait for it to be reached
M104 S210 ; set temperature
G28 ; home all axes
G1 Z5 F5000 ; lift nozzle
M109 S210 ; set temperature and wait for it to be reached
G21 ; set units to millimeters
G90 ; use absolute coordinates
M82 ; use absolute distances for extrusion
G92 E0
; Filament gcode
G1 Z0.350 F7800.000
G1 E-2.00000 F2400.00000
G92 E0
G1 X101.283 Y66.298 F7800.000
G1 E2.00000 F2400.00000
G1 F1800.000
G1 X101.881 Y65.574 E2.04712
G1 X102.580 Y64.947 E2.09423
G1 X103.363 Y64.430 E2.14135
G1 X104.214 Y64.034 E2.18846
G1 X105.115 Y63.767 E2.23558
G1 X106.411 Y63.624 E2.30105
G1 X124.464 Y63.624 E3.20706
G1 X125.725 Y63.732 E3.27058
G1 X126.620 Y63.921 E3.31645
G1 X127.817 Y64.363 E3.38051
G1 X128.718 Y64.854 E3.43198
G1 X129.762 Y65.623 E3.49709
G1 X130.648 Y66.547 E3.56133
G1 X131.244 Y67.359 E3.61187
G1 X131.826 Y68.451 E3.67398
G1 X148.993 Y112.042 E6.02515
G1 X149.481 Y113.650 E6.10948
G1 X149.727 Y114.866 E6.17176
G1 X149.860 Y116.118 E6.23496
G1 X149.870 Y117.912 E6.32497
G1 X149.682 Y119.540 E6.40719
G1 X149.334 Y121.058 E6.48536
G1 X148.820 Y122.541 E6.56416
G1 X148.151 Y123.955 E6.64267
G1 X147.329 Y125.294 E6.72149
G1 X146.374 Y126.526 E6.79972
G1 X145.282 Y127.656 E6.87858
G1 X144.078 Y128.657 E6.95716
G1 X142.761 Y129.527 E7.03639
G1 X141.401 Y130.227 E7.11314
G1 X115.428 Y141.841 E8.54104
G1 X114.513 Y142.126 E8.58909
G1 X113.567 Y142.270 E8.63714
G1 X111.698 Y142.286 E8.73094
G1 X110.782 Y142.194 E8.77712
G1 X109.931 Y141.984 E8.82112
G1 X109.117 Y141.659 E8.86512
G1 X108.142 Y141.101 E8.92148
G1 X107.449 Y140.585 E8.96486
G1 X106.689 Y139.855 E9.01772
G1 X106.157 Y139.206 E9.05985
G1 X105.558 Y138.253 E9.11632
G1 X105.168 Y137.386 E9.16406
G1 X104.801 Y136.158 E9.22836
G1 X100.178 Y112.928 E10.41705
G1 X100.113 Y112.035 E10.46198
G1 X100.113 Y69.962 E12.57345
G1 X100.208 Y68.879 E12.62804
G1 X100.437 Y67.968 E12.67515
G1 X100.798 Y67.102 E12.72227
G1 X101.252 Y66.349 E12.76637
G1 E10.76637 F2400.00000
G92 E0
G1 X123.632 Y72.094 F7800.000
G1 E2.00000 F2400.00000
G1 F1800.000
G1 X107.358 Y72.094 E2.81671
G1 X107.358 Y70.868 E2.87824
G1 X124.405 Y70.868 E3.73375
G1 X124.648 Y70.899 E3.74608
G1 X124.819 Y70.963 E3.75525
G1 X124.976 Y71.071 E3.76481
G1 X125.109 Y71.221 E3.77484
G1 X125.196 Y71.385 E3.78418
G1 X125.244 Y71.574 E3.79395
G1 X125.246 Y71.777 E3.80415
G1 X125.204 Y71.960 E3.81355
G1 X125.117 Y72.134 E3.82334
G1 X124.992 Y72.281 E3.83299
G1 X124.839 Y72.392 E3.84249
G1 X124.656 Y72.465 E3.85240
G1 X124.477 Y72.491 E3.86147
G1 X124.288 Y72.472 E3.87097
G1 X124.110 Y72.409 E3.88046
G1 X123.682 Y72.127 E3.90619
G1 E1.90619 F2400.00000
G92 E0
G1 X107.358 Y109.899 F7800.000
G1 E2.00000 F2400.00000
G1 F1800.000
G1 X135.525 Y109.899 E3.41360
G1 X136.321 Y109.943 E3.45361
G1 X137.083 Y110.069 E3.49238
G1 X137.827 Y110.279 E3.53117
G1 X138.544 Y110.569 E3.56999
G1 X139.226 Y110.936 E3.60885
G1 X139.865 Y111.376 E3.64776
G1 X140.452 Y111.883 E3.68671
G1 X140.981 Y112.452 E3.72571
G1 X141.446 Y113.076 E3.76476
G1 X141.841 Y113.748 E3.80386
G1 X142.162 Y114.459 E3.84300
G1 X142.404 Y115.201 E3.88217
G1 X142.564 Y115.965 E3.92136
G1 X142.642 Y116.742 E3.96057
G1 X142.635 Y117.524 E3.99979
G1 X142.543 Y118.300 E4.03900
G1 X142.369 Y119.061 E4.07819
G1 X142.113 Y119.798 E4.11736
G1 X141.780 Y120.503 E4.15649
G1 X141.373 Y121.167 E4.19558
G1 X140.897 Y121.782 E4.23462
G1 X140.357 Y122.341 E4.27361
G1 X139.761 Y122.838 E4.31256
G1 X139.114 Y123.266 E4.35145
G1 X138.404 Y123.631 E4.39155
G1 X112.897 Y135.043 E5.79394
G1 X112.121 Y135.043 E5.83284
G1 X112.022 Y134.946 E5.83981
G1 X111.946 Y134.826 E5.84694
G1 X111.900 Y134.691 E5.85412
G1 X111.886 Y134.548 E5.86134
G1 X111.906 Y134.405 E5.86856
G1 X111.967 Y134.249 E5.87697
G1 X112.110 Y134.084 E5.88792
G1 X131.293 Y120.540 E7.06641
G1 X131.725 Y120.157 E7.09537
G1 X132.093 Y119.653 E7.12671
G1 X132.346 Y119.082 E7.15805
G1 X132.471 Y118.473 E7.18926
G1 X132.469 Y117.875 E7.21923
G1 X132.330 Y117.242 E7.25176
G1 X132.081 Y116.698 E7.28178
G1 X131.709 Y116.196 E7.31317
G1 X131.217 Y115.772 E7.34574
G1 X130.692 Y115.485 E7.37576
G1 X130.141 Y115.323 E7.40462
G1 X107.358 Y111.271 E8.56594
G1 X107.358 Y109.959 E8.63179
G1 E6.63179 F2400.00000
G92 E0
G1 X107.403 Y72.439 F7800.000
G1 E2.00000 F2400.00000
G1 F1800.000
G1 X107.403 Y109.554 E3.86264
G1 X135.535 Y109.554 E5.27444
G1 X136.359 Y109.599 E5.31588
G1 X137.159 Y109.732 E5.35655
G1 X137.939 Y109.952 E5.39724
G1 X138.691 Y110.256 E5.43796
G1 X139.406 Y110.641 E5.47872
G1 X140.076 Y111.103 E5.51952
G1 X140.692 Y111.635 E5.56036
G1 X141.247 Y112.231 E5.60125
G1 X141.734 Y112.885 E5.64218
G1 X142.148 Y113.589 E5.68316
G1 X142.484 Y114.334 E5.72418
G1 X142.738 Y115.111 E5.76522
G1 X142.906 Y115.912 E5.80629
G1 X142.987 Y116.727 E5.84737
G1 X142.979 Y117.546 E5.88846
G1 X142.884 Y118.359 E5.92954
G1 X142.701 Y119.156 E5.97061
G1 X142.433 Y119.929 E6.01165
G1 X142.084 Y120.668 E6.05266
G1 X141.657 Y121.364 E6.09363
G1 X141.158 Y122.008 E6.13456
G1 X140.592 Y122.594 E6.17544
G1 X139.967 Y123.115 E6.21627
G1 X139.289 Y123.564 E6.25706
G1 X138.554 Y123.942 E6.29858
G1 X112.970 Y135.388 E7.70514
G1 X112.025 Y135.388 E7.75256
G1 X111.911 Y135.320 E7.75926
G1 X111.752 Y135.165 E7.77040
G1 X111.633 Y134.976 E7.78160
G1 X111.561 Y134.764 E7.79284
G1 X111.539 Y134.540 E7.80411
G1 X111.570 Y134.318 E7.81538
G1 X111.657 Y134.095 E7.82738
G1 X111.880 Y133.824 E7.84500
G1 X131.078 Y120.269 E9.02442
G1 X131.468 Y119.924 E9.05056
G1 X131.792 Y119.479 E9.07818
G1 X132.015 Y118.976 E9.10581
G1 X132.126 Y118.438 E9.13337
G1 X132.124 Y117.914 E9.15969
G1 X132.001 Y117.352 E9.18853
G1 X131.783 Y116.875 E9.21489
G1 X131.455 Y116.432 E9.24254
G1 X131.020 Y116.057 E9.27134
G1 X130.559 Y115.806 E9.29768
G1 X130.062 Y115.659 E9.32372
G1 X107.013 Y111.560 E10.49859
G1 X107.013 Y70.523 E12.55804
G1 X124.426 Y70.523 E13.43193
G1 X124.732 Y70.561 E13.44741
G1 X124.980 Y70.656 E13.46074
G1 X125.206 Y70.811 E13.47449
G1 X125.394 Y71.023 E13.48871
G1 X125.520 Y71.260 E13.50219
G1 X125.589 Y71.529 E13.51611
G1 X125.592 Y71.815 E13.53047
G1 X125.531 Y72.078 E13.54400
G1 X125.406 Y72.326 E13.55792
G1 X125.228 Y72.536 E13.57174
G1 X125.007 Y72.696 E13.58546
G1 X124.746 Y72.801 E13.59958
G1 X124.484 Y72.838 E13.61283
G1 X124.213 Y72.811 E13.62653
G1 X123.955 Y72.720 E13.64022
G1 X123.528 Y72.439 E13.66588
G1 X107.463 Y72.439 E14.47212
G1 X107.748 Y72.784 F7800.000
G1 F1800.000
G1 X107.748 Y109.209 E16.30015
G1 X135.544 Y109.209 E17.69512
G1 X136.397 Y109.256 E17.73797
G1 X137.234 Y109.395 E17.78055
G1 X138.051 Y109.625 E17.82315
G1 X138.838 Y109.944 E17.86577
G1 X139.586 Y110.347 E17.90842
G1 X140.287 Y110.829 E17.95111
G1 X140.931 Y111.386 E17.99384
G1 X141.512 Y112.010 E18.03662
G1 X142.022 Y112.694 E18.07944
G1 X142.455 Y113.430 E18.12230
G1 X142.806 Y114.209 E18.16519
G1 X143.071 Y115.022 E18.20811
G1 X143.247 Y115.860 E18.25105
G1 X143.332 Y116.711 E18.29401
G1 X143.324 Y117.567 E18.33697
G1 X143.224 Y118.417 E18.37992
G1 X143.033 Y119.251 E18.42286
G1 X142.753 Y120.059 E18.46578
G1 X142.388 Y120.832 E18.50866
G1 X141.941 Y121.560 E18.55151
G1 X141.419 Y122.234 E18.59432
G1 X140.827 Y122.848 E18.63709
G1 X140.173 Y123.392 E18.67982
G1 X139.464 Y123.862 E18.72250
G1 X138.703 Y124.253 E18.76544
G1 X113.044 Y135.733 E20.17617
G1 X111.930 Y135.733 E20.23207
G1 X111.699 Y135.595 E20.24559
G1 X111.482 Y135.383 E20.26081
G1 X111.320 Y135.126 E20.27608
G1 X111.221 Y134.837 E20.29138
G1 X111.192 Y134.533 E20.30670
G1 X111.234 Y134.231 E20.32202
G1 X111.346 Y133.941 E20.33761
G1 X111.425 Y133.813 E20.34515
G1 X111.651 Y133.565 E20.36200
G1 X130.864 Y119.999 E21.54236
G1 X131.211 Y119.690 E21.56567
G1 X131.492 Y119.306 E21.58957
G1 X131.685 Y118.870 E21.61349
G1 X131.781 Y118.404 E21.63739
G1 X131.780 Y117.952 E21.66008
G1 X131.672 Y117.462 E21.68522
G1 X131.484 Y117.051 E21.70792
G1 X131.201 Y116.668 E21.73183
G1 X130.823 Y116.342 E21.75686
G1 X130.426 Y116.126 E21.77951
G1 X129.982 Y115.995 E21.80275
G1 X106.668 Y111.849 E22.99116
G1 X106.668 Y70.178 E25.08242
G1 X124.447 Y70.179 E25.97469
G1 X124.816 Y70.224 E25.99331
G1 X125.142 Y70.348 E26.01081
G1 X125.436 Y70.550 E26.02874
G1 X125.680 Y70.825 E26.04716
G1 X125.844 Y71.135 E26.06478
G1 X125.933 Y71.484 E26.08285
G1 X125.937 Y71.853 E26.10137
G1 X125.857 Y72.195 E26.11901
G1 X125.696 Y72.517 E26.13707
G1 X125.464 Y72.790 E26.15507
G1 X125.175 Y73.000 E26.17300
G1 X124.836 Y73.136 E26.19134
G1 X124.492 Y73.185 E26.20878
G1 X124.137 Y73.150 E26.22666
G1 X123.801 Y73.031 E26.24456
G1 X123.425 Y72.784 E26.26713
G1 X107.808 Y72.784 E27.05088
G1 X107.348 Y72.782 F7800.000
G1 X108.171 Y71.991
G1 F1800.000
G1 X107.617 Y71.437 E27.09086
G1 X107.617 Y71.127 E27.10667
G1 X107.803 Y71.127 E27.11616
G1 X108.511 Y71.836 E27.16730
G1 X109.007 Y71.836 E27.19259
G1 X108.298 Y71.127 E27.24373
G1 X108.794 Y71.127 E27.26903
G1 X109.503 Y71.836 E27.32017
G1 X109.999 Y71.836 E27.34547
G1 X109.290 Y71.127 E27.39661
G1 X109.786 Y71.127 E27.42191
G1 X110.495 Y71.836 E27.47304
G1 X110.991 Y71.836 E27.49834
G1 X110.282 Y71.127 E27.54948
G1 X110.778 Y71.127 E27.57478
G1 X111.486 Y71.836 E27.62592
G1 X111.982 Y71.836 E27.65121
G1 X111.273 Y71.127 E27.70235
G1 X111.769 Y71.127 E27.72765
G1 X112.478 Y71.836 E27.77879
G1 X112.974 Y71.836 E27.80409
G1 X112.265 Y71.127 E27.85522
G1 X112.761 Y71.127 E27.88052
G1 X113.470 Y71.836 E27.93166
G1 X113.966 Y71.836 E27.95696
G1 X113.257 Y71.127 E28.00809
G1 X113.753 Y71.127 E28.03339
G1 X114.461 Y71.836 E28.08453
G1 X114.957 Y71.836 E28.10982
G1 X114.249 Y71.127 E28.16096
G1 X114.744 Y71.127 E28.18626
G1 X115.453 Y71.836 E28.23739
G1 X115.949 Y71.836 E28.26269
G1 X115.240 Y71.127 E28.31383
G1 X115.736 Y71.127 E28.33913
G1 X116.445 Y71.836 E28.39026
G1 X116.941 Y71.836 E28.41556
G1 X116.232 Y71.127 E28.46669
G1 X116.728 Y71.127 E28.49199
G1 X117.437 Y71.836 E28.54313
G1 X117.932 Y71.836 E28.56842
G1 X117.224 Y71.127 E28.61956
G1 X117.720 Y71.127 E28.64486
G1 X118.428 Y71.836 E28.69599
G1 X118.924 Y71.836 E28.72129
G1 X118.215 Y71.127 E28.77242
G1 X118.711 Y71.127 E28.79772
G1 X119.420 Y71.836 E28.84886
G1 X119.916 Y71.836 E28.87415
G1 X119.207 Y71.127 E28.92529
G1 X119.703 Y71.127 E28.95058
G1 X120.412 Y71.836 E29.00172
G1 X120.907 Y71.836 E29.02702
G1 X120.199 Y71.127 E29.07815
G1 X120.695 Y71.127 E29.10345
G1 X121.403 Y71.836 E29.15458
G1 X121.899 Y71.836 E29.17988
G1 X121.191 Y71.127 E29.23101
G1 X121.686 Y71.127 E29.25631
G1 X122.395 Y71.836 E29.30744
G1 X122.891 Y71.836 E29.33274
G1 X122.182 Y71.127 E29.38387
G1 X122.678 Y71.127 E29.40917
G1 X123.387 Y71.836 E29.46030
G1 X123.709 Y71.836 E29.47675
G1 X124.216 Y72.169 E29.50771
G1 X123.174 Y71.127 E29.58290
G1 X123.670 Y71.127 E29.60820
G1 X124.708 Y72.165 E29.68313
G1 X124.815 Y72.090 E29.68982
G1 X124.899 Y71.990 E29.69645
G1 X124.943 Y71.904 E29.70138
G1 X124.166 Y71.127 E29.75744
G1 X124.389 Y71.127 E29.76883
G1 X124.586 Y71.151 E29.77895
G1 X124.698 Y71.194 E29.78510
G1 X124.795 Y71.260 E29.79107
G1 X125.141 Y71.607 E29.81606
G1 E27.81606 F2400.00000
G92 E0
G1 X108.298 Y111.333 F7800.000
G1 E2.00000 F2400.00000
G1 F1800.000
G1 X107.617 Y110.651 E2.04840
G1 X107.617 Y110.163 E2.07291
G1 X108.700 Y111.247 E2.14986
G1 X109.294 Y111.352 E2.18014
G1 X108.099 Y110.158 E2.26501
G1 X108.587 Y110.158 E2.28952
G1 X109.887 Y111.458 E2.38188
G1 X110.481 Y111.564 E2.41216
G1 X109.075 Y110.158 E2.51202
G1 X109.563 Y110.158 E2.53653
G1 X111.075 Y111.669 E2.64389
G1 X111.668 Y111.775 E2.67417
G1 X110.051 Y110.158 E2.78903
G1 X110.539 Y110.158 E2.81354
G1 X112.262 Y111.880 E2.93590
G1 X112.856 Y111.986 E2.96618
G1 X111.027 Y110.158 E3.09603
G1 X111.515 Y110.158 E3.12054
G1 X113.449 Y112.091 E3.25789
G1 X114.043 Y112.197 E3.28818
G1 X112.003 Y110.158 E3.43303
G1 X112.492 Y110.158 E3.45754
G1 X114.637 Y112.303 E3.60989
G1 X115.230 Y112.408 E3.64017
G1 X112.980 Y110.158 E3.80001
G1 X113.468 Y110.158 E3.82453
G1 X115.824 Y112.514 E3.99187
G1 X116.418 Y112.619 E4.02215
G1 X113.956 Y110.158 E4.19700
G1 X114.444 Y110.158 E4.22151
G1 X117.011 Y112.725 E4.40385
G1 X117.605 Y112.830 E4.43413
G1 X114.932 Y110.158 E4.62397
G1 X115.420 Y110.158 E4.64848
G1 X118.199 Y112.936 E4.84582
G1 X118.792 Y113.042 E4.87610
G1 X115.908 Y110.158 E5.08094
G1 X116.396 Y110.158 E5.10545
G1 X119.386 Y113.147 E5.31779
G1 X119.980 Y113.253 E5.34807
G1 X116.884 Y110.158 E5.56790
G1 X117.372 Y110.158 E5.59241
G1 X120.573 Y113.358 E5.81975
G1 X121.167 Y113.464 E5.85003
G1 X117.860 Y110.158 E6.08486
G1 X118.349 Y110.158 E6.10937
G1 X121.761 Y113.570 E6.35170
G1 X122.354 Y113.675 E6.38198
G1 X118.837 Y110.158 E6.63181
G1 X119.325 Y110.158 E6.65632
G1 X122.948 Y113.781 E6.91364
G1 X123.542 Y113.886 E6.94392
G1 X119.813 Y110.158 E7.20875
G1 X120.301 Y110.158 E7.23326
G1 X124.135 Y113.992 E7.50558
G1 X124.729 Y114.097 E7.53586
G1 X120.789 Y110.158 E7.81568
G1 X121.277 Y110.158 E7.84019
G1 X125.323 Y114.203 E8.12751
G1 X125.916 Y114.309 E8.15779
G1 X121.765 Y110.158 E8.45261
G1 X122.253 Y110.158 E8.47712
G1 X126.510 Y114.414 E8.77944
G1 X127.104 Y114.520 E8.80972
G1 X122.741 Y110.158 E9.11953
G1 X123.229 Y110.158 E9.14404
G1 X127.697 Y114.625 E9.46136
G1 X128.291 Y114.731 E9.49164
G1 X123.717 Y110.158 E9.81645
G1 X124.206 Y110.158 E9.84096
G1 X128.884 Y114.836 E10.17327
G1 X129.478 Y114.942 E10.20355
G1 X124.694 Y110.158 E10.54336
G1 X125.182 Y110.158 E10.56787
G1 X130.072 Y115.048 E10.91517
G1 X130.743 Y115.231 E10.95012
G1 X125.670 Y110.158 E11.31043
G1 X126.158 Y110.158 E11.33494
G1 X139.019 Y123.019 E12.24837
G1 X139.313 Y122.824 E12.26606
G1 X126.646 Y110.158 E13.16568
G1 X127.134 Y110.158 E13.19019
G1 X139.606 Y122.630 E14.07600
G1 X139.873 Y122.408 E14.09340
G1 X127.622 Y110.158 E14.96346
G1 X128.110 Y110.158 E14.98797
G1 X140.139 Y122.186 E15.84229
G1 X140.383 Y121.942 E15.85962
G1 X128.598 Y110.158 E16.69660
G1 X129.086 Y110.158 E16.72111
G1 X140.623 Y121.694 E17.54044
G1 X140.844 Y121.427 E17.55785
G1 X129.574 Y110.158 E18.35826
G1 X130.063 Y110.158 E18.38277
G1 X141.057 Y121.152 E19.16364
G1 X141.256 Y120.863 E19.18127
G1 X130.551 Y110.158 E19.94160
G1 X131.039 Y110.158 E19.96611
G1 X141.442 Y120.560 E20.70495
G1 X141.616 Y120.246 E20.72298
G1 X131.527 Y110.158 E21.43951
G1 X132.015 Y110.158 E21.46402
G1 X141.772 Y119.915 E22.15701
G1 X141.918 Y119.572 E22.17569
G1 X132.503 Y110.158 E22.84437
G1 X132.991 Y110.158 E22.86888
G1 X142.043 Y119.210 E23.51181
G1 X142.155 Y118.834 E23.53151
G1 X133.479 Y110.158 E24.14773
G1 X133.967 Y110.158 E24.17224
G1 X142.246 Y118.437 E24.76025
G1 X142.316 Y118.018 E24.78156
G1 X134.455 Y110.158 E25.33984
G1 X134.943 Y110.158 E25.36436
G1 X142.367 Y117.581 E25.89162
G1 X142.380 Y117.106 E25.91552
G1 X135.431 Y110.158 E26.40900
G1 X135.943 Y110.181 E26.43471
G1 X142.368 Y116.606 E26.89105
G1 X142.314 Y116.064 E26.91839
G1 X136.482 Y110.232 E27.33265
G1 X137.074 Y110.335 E27.36283
G1 X142.193 Y115.455 E27.72642
G1 X142.154 Y115.267 E27.73603
G1 X141.989 Y114.763 E27.76269
G1 X137.755 Y110.529 E28.06340
G1 X138.434 Y110.804 E28.10019
G1 X138.615 Y110.901 E28.11052
G1 X141.946 Y114.232 E28.34709
G1 E26.34709 F2400.00000
G92 E0
G1 X138.816 Y123.303 F7800.000
G1 E2.00000 F2400.00000
G1 F1800.000
G1 X132.496 Y116.984 E2.44880
G1 X132.577 Y117.160 E2.45850
G1 X132.687 Y117.663 E2.48437
G1 X138.378 Y123.354 E2.88855
G1 X138.045 Y123.509 E2.90700
G1 X132.729 Y118.193 E3.28456
G1 X132.730 Y118.499 E3.29992
G1 X132.699 Y118.651 E3.30771
G1 X137.708 Y123.660 E3.66346
G1 X137.370 Y123.811 E3.68202
G1 X132.615 Y119.055 E4.01975
G1 X132.593 Y119.161 E4.02518
G1 X132.483 Y119.411 E4.03890
G1 X137.033 Y123.961 E4.36209
G1 X136.696 Y124.112 E4.38064
G1 X132.333 Y119.749 E4.69052
G1 X132.133 Y120.037 E4.70812
G1 X136.359 Y124.263 E5.00828
G1 X136.022 Y124.414 E5.02683
G1 X131.927 Y120.319 E5.31767
