; generated by PrusaSlicer 2.2.0-alpha2+linux-x64 on 2020-02-11 at 00:52:30 UTC

; 

; external perimeters extrusion width = 0.45mm
; perimeters extrusion width = 0.45mm
; infill extrusion width = 0.45mm
; solid infill extrusion width = 0.45mm
; top infill extrusion width = 0.40mm
; first layer extrusion width = 0.42mm

M107
M190 S55 ; set bed temperature and wait for it to be reached
M104 S210 ; set temperature
G28 ; home all axes
G1 Z5 F5000 ; lift nozzle
M109 S210 ; set temperature and wait for it to be reached
G21 ; set units to millimeters
G90 ; use absolute coordinates
M82 ; use absolute distances for extrusion
G92 E0
; Filament gcode
G1 Z0.350 F7800.000
G1 E-2.00000 F2400.00000
G92 E0
G1 X91.417 Y59.674 F7800.000
G1 E2.00000 F2400.00000
G1 F1800.000
G1 X92.411 Y58.378 E2.08196
G1 X93.487 Y57.258 E2.15990
G1 X94.692 Y56.250 E2.23879
G1 X95.932 Y55.420 E2.31365
G1 X97.404 Y54.653 E2.39695
G1 X123.292 Y43.074 E3.82016
G1 X124.075 Y42.808 E3.86167
G1 X124.886 Y42.647 E3.90318
G1 X126.940 Y42.592 E4.00629
G1 X128.048 Y42.691 E4.06212
G1 X129.128 Y42.984 E4.11826
G1 X130.074 Y43.424 E4.17067
G1 X131.201 Y44.164 E4.23831
G1 X132.124 Y45.032 E4.30188
G1 X132.761 Y45.836 E4.35336
G1 X133.405 Y46.935 E4.41727
G1 X133.855 Y48.133 E4.48151
G1 X152.301 Y120.490 E8.22895
G1 X152.587 Y121.889 E8.30061
G1 X152.736 Y123.389 E8.37630
G1 X152.728 Y124.916 E8.45291
G1 X152.587 Y126.223 E8.51891
G1 X152.217 Y127.972 E8.60860
G1 X151.712 Y129.459 E8.68740
G1 X151.029 Y130.921 E8.76839
G1 X150.236 Y132.226 E8.84503
G1 X149.248 Y133.511 E8.92638
G1 X148.167 Y134.635 E9.00462
G1 X146.956 Y135.646 E9.08382
G1 X145.678 Y136.496 E9.16087
G1 X144.259 Y137.231 E9.24105
G1 X118.314 Y148.834 E10.66739
G1 X117.444 Y149.113 E10.71326
G1 X116.542 Y149.264 E10.75913
G1 X113.966 Y149.246 E10.88842
G1 X112.985 Y149.048 E10.93865
G1 X112.053 Y148.700 E10.98857
G1 X110.973 Y148.089 E11.05084
G1 X110.194 Y147.491 E11.10014
G1 X109.316 Y146.598 E11.16297
G1 X108.634 Y145.627 E11.22253
G1 X108.175 Y144.765 E11.27151
G1 X107.794 Y143.705 E11.32805
G1 X89.362 Y71.395 E15.07307
G1 X89.076 Y69.996 E15.14472
G1 X88.927 Y68.495 E15.22041
G1 X88.936 Y66.968 E15.29703
G1 X89.076 Y65.661 E15.36302
G1 X89.445 Y63.919 E15.45240
G1 X89.949 Y62.431 E15.53120
G1 X90.634 Y60.964 E15.61251
G1 X91.386 Y59.725 E15.68520
G1 E13.68520 F2400.00000
G92 E0
G1 X110.215 Y77.872 F7800.000
G1 E2.00000 F2400.00000
G1 F1800.000
G1 X127.262 Y77.872 E2.85551
G1 X127.506 Y77.903 E2.86783
G1 X127.677 Y77.967 E2.87700
G1 X127.834 Y78.075 E2.88656
G1 X127.966 Y78.225 E2.89659
G1 X128.054 Y78.389 E2.90594
G1 X128.102 Y78.578 E2.91571
G1 X128.104 Y78.781 E2.92591
G1 X128.061 Y78.964 E2.93531
G1 X127.974 Y79.138 E2.94510
G1 X127.850 Y79.285 E2.95475
G1 X127.696 Y79.396 E2.96425
G1 X127.513 Y79.469 E2.97415
G1 X127.334 Y79.495 E2.98322
G1 X127.146 Y79.476 E2.99273
G1 X126.968 Y79.413 E3.00222
G1 X126.489 Y79.098 E3.03096
G1 X110.215 Y79.098 E3.84767
G1 X110.215 Y77.932 E3.90619
G1 E1.90619 F2400.00000
G92 E0
G1 X110.215 Y116.903 F7800.000
G1 E2.00000 F2400.00000
G1 F1800.000
G1 X138.383 Y116.903 E3.41360
G1 X139.179 Y116.947 E3.45361
G1 X139.941 Y117.073 E3.49238
G1 X140.685 Y117.283 E3.53117
G1 X141.402 Y117.573 E3.56999
G1 X142.084 Y117.940 E3.60885
G1 X142.722 Y118.380 E3.64776
G1 X143.309 Y118.887 E3.68671
G1 X143.839 Y119.456 E3.72571
G1 X144.304 Y120.080 E3.76476
G1 X144.699 Y120.752 E3.80386
G1 X145.019 Y121.463 E3.84300
G1 X145.261 Y122.205 E3.88217
G1 X145.422 Y122.969 E3.92136
G1 X145.499 Y123.746 E3.96057
G1 X145.492 Y124.528 E3.99979
G1 X145.401 Y125.304 E4.03900
G1 X145.226 Y126.065 E4.07819
G1 X144.971 Y126.802 E4.11736
G1 X144.638 Y127.507 E4.15649
G1 X144.230 Y128.171 E4.19558
G1 X143.754 Y128.786 E4.23462
G1 X143.214 Y129.345 E4.27361
G1 X142.618 Y129.842 E4.31256
G1 X141.972 Y130.270 E4.35145
G1 X141.262 Y130.635 E4.39155
G1 X115.754 Y142.047 E5.79394
G1 X114.979 Y142.047 E5.83284
G1 X114.880 Y141.951 E5.83981
G1 X114.804 Y141.830 E5.84694
G1 X114.758 Y141.695 E5.85412
G1 X114.744 Y141.552 E5.86134
G1 X114.764 Y141.409 E5.86856
G1 X114.824 Y141.253 E5.87697
G1 X114.968 Y141.088 E5.88792
G1 X134.150 Y127.544 E7.06641
G1 X134.582 Y127.161 E7.09537
G1 X134.950 Y126.657 E7.12671
G1 X135.203 Y126.086 E7.15805
G1 X135.329 Y125.477 E7.18926
G1 X135.327 Y124.880 E7.21923
G1 X135.188 Y124.246 E7.25176
G1 X134.939 Y123.702 E7.28178
G1 X134.567 Y123.200 E7.31317
G1 X134.075 Y122.776 E7.34574
G1 X133.550 Y122.490 E7.37576
G1 X132.998 Y122.327 E7.40462
G1 X110.215 Y118.275 E8.56594
G1 X110.215 Y116.963 E8.63179
G1 E6.63179 F2400.00000
G92 E0
G1 X110.261 Y79.443 F7800.000
G1 E2.00000 F2400.00000
G1 F1800.000
G1 X110.261 Y116.558 E3.86264
G1 X138.392 Y116.558 E5.27444
G1 X139.217 Y116.603 E5.31588
G1 X140.016 Y116.736 E5.35655
G1 X140.796 Y116.956 E5.39724
G1 X141.549 Y117.260 E5.43796
G1 X142.264 Y117.645 E5.47872
G1 X142.933 Y118.107 E5.51952
G1 X143.549 Y118.639 E5.56036
G1 X144.104 Y119.235 E5.60125
G1 X144.592 Y119.889 E5.64218
G1 X145.006 Y120.593 E5.68316
G1 X145.341 Y121.338 E5.72418
G1 X145.595 Y122.115 E5.76522
G1 X145.763 Y122.916 E5.80629
G1 X145.844 Y123.731 E5.84737
G1 X145.837 Y124.550 E5.88846
G1 X145.741 Y125.363 E5.92954
G1 X145.558 Y126.160 E5.97061
G1 X145.291 Y126.933 E6.01165
G1 X144.941 Y127.672 E6.05266
G1 X144.515 Y128.368 E6.09363
G1 X144.015 Y129.012 E6.13456
G1 X143.450 Y129.599 E6.17544
G1 X142.824 Y130.119 E6.21627
G1 X142.146 Y130.568 E6.25706
G1 X141.411 Y130.946 E6.29858
G1 X115.828 Y142.392 E7.70514
G1 X114.883 Y142.392 E7.75256
G1 X114.768 Y142.324 E7.75926
G1 X114.610 Y142.169 E7.77040
G1 X114.491 Y141.980 E7.78160
G1 X114.418 Y141.768 E7.79284
G1 X114.397 Y141.544 E7.80411
G1 X114.427 Y141.322 E7.81538
G1 X114.514 Y141.099 E7.82738
G1 X114.738 Y140.829 E7.84500
G1 X133.936 Y127.273 E9.02442
G1 X134.325 Y126.928 E9.05056
G1 X134.650 Y126.483 E9.07818
G1 X134.873 Y125.980 E9.10581
G1 X134.984 Y125.442 E9.13337
G1 X134.982 Y124.918 E9.15969
G1 X134.859 Y124.356 E9.18853
G1 X134.640 Y123.879 E9.21489
G1 X134.312 Y123.436 E9.24254
G1 X133.878 Y123.061 E9.27134
G1 X133.417 Y122.810 E9.29768
G1 X132.919 Y122.663 E9.32372
G1 X109.871 Y118.564 E10.49859
G1 X109.871 Y77.527 E12.55804
G1 X127.284 Y77.528 E13.43193
G1 X127.590 Y77.565 E13.44741
G1 X127.838 Y77.660 E13.46074
G1 X128.064 Y77.815 E13.47449
G1 X128.252 Y78.027 E13.48871
G1 X128.378 Y78.264 E13.50219
G1 X128.446 Y78.533 E13.51611
G1 X128.449 Y78.819 E13.53047
G1 X128.388 Y79.082 E13.54400
G1 X128.264 Y79.330 E13.55792
G1 X128.086 Y79.540 E13.57174
G1 X127.864 Y79.700 E13.58546
G1 X127.603 Y79.805 E13.59958
G1 X127.342 Y79.842 E13.61283
G1 X127.070 Y79.815 E13.62653
G1 X126.813 Y79.724 E13.64022
G1 X126.386 Y79.443 E13.66588
G1 X110.321 Y79.443 E14.47212
G1 X110.606 Y79.788 F7800.000
G1 F1800.000
G1 X110.606 Y116.213 E16.30015
G1 X138.402 Y116.213 E17.69512
G1 X139.254 Y116.260 E17.73797
G1 X140.091 Y116.399 E17.78055
G1 X140.908 Y116.629 E17.82315
G1 X141.696 Y116.948 E17.86577
G1 X142.444 Y117.351 E17.90842
G1 X143.144 Y117.833 E17.95111
G1 X143.789 Y118.390 E17.99384
G1 X144.369 Y119.014 E18.03662
G1 X144.879 Y119.698 E18.07944
G1 X145.312 Y120.434 E18.12230
G1 X145.664 Y121.213 E18.16519
G1 X145.929 Y122.026 E18.20811
G1 X146.105 Y122.864 E18.25105
G1 X146.189 Y123.715 E18.29401
G1 X146.181 Y124.571 E18.33697
G1 X146.081 Y125.421 E18.37992
G1 X145.890 Y126.255 E18.42286
G1 X145.610 Y127.063 E18.46578
G1 X145.245 Y127.836 E18.50866
G1 X144.799 Y128.564 E18.55151
G1 X144.276 Y129.238 E18.59432
G1 X143.685 Y129.852 E18.63709
G1 X143.030 Y130.396 E18.67982
G1 X142.321 Y130.866 E18.72250
G1 X141.560 Y131.257 E18.76544
G1 X115.901 Y142.737 E20.17617
G1 X114.788 Y142.737 E20.23207
G1 X114.556 Y142.599 E20.24559
G1 X114.339 Y142.387 E20.26081
G1 X114.177 Y142.130 E20.27608
G1 X114.079 Y141.841 E20.29138
G1 X114.050 Y141.537 E20.30670
G1 X114.091 Y141.235 E20.32202
G1 X114.204 Y140.945 E20.33761
G1 X114.282 Y140.817 E20.34515
G1 X114.508 Y140.569 E20.36200
G1 X133.721 Y127.003 E21.54236
G1 X134.069 Y126.694 E21.56567
G1 X134.350 Y126.310 E21.58957
G1 X134.542 Y125.874 E21.61349
G1 X134.639 Y125.408 E21.63739
G1 X134.637 Y124.956 E21.66008
G1 X134.530 Y124.466 E21.68522
G1 X134.342 Y124.055 E21.70792
G1 X134.058 Y123.672 E21.73183
G1 X133.680 Y123.346 E21.75686
G1 X133.284 Y123.130 E21.77951
G1 X132.840 Y122.999 E21.80275
G1 X109.526 Y118.853 E22.99116
G1 X109.526 Y77.182 E25.08242
G1 X127.305 Y77.183 E25.97469
G1 X127.673 Y77.228 E25.99331
G1 X127.999 Y77.352 E26.01081
G1 X128.294 Y77.554 E26.02874
G1 X128.537 Y77.829 E26.04716
G1 X128.702 Y78.139 E26.06478
G1 X128.791 Y78.488 E26.08285
G1 X128.794 Y78.857 E26.10137
G1 X128.715 Y79.199 E26.11901
G1 X128.554 Y79.521 E26.13707
G1 X128.322 Y79.795 E26.15507
G1 X128.032 Y80.004 E26.17300
G1 X127.693 Y80.140 E26.19134
G1 X127.349 Y80.189 E26.20878
G1 X126.994 Y80.154 E26.22666
G1 X126.658 Y80.035 E26.24456
G1 X126.283 Y79.788 E26.26713
G1 X110.666 Y79.788 E27.05088
G1 X110.206 Y79.786 F7800.000
G1 X111.028 Y78.995
G1 F1800.000
G1 X110.474 Y78.441 E27.09086
G1 X110.474 Y78.131 E27.10667
G1 X110.660 Y78.131 E27.11616
G1 X111.369 Y78.840 E27.16730
G1 X111.865 Y78.840 E27.19259
G1 X111.156 Y78.131 E27.24373
G1 X111.652 Y78.131 E27.26903
G1 X112.360 Y78.840 E27.32017
G1 X112.856 Y78.840 E27.34547
G1 X112.148 Y78.131 E27.39661
G1 X112.643 Y78.131 E27.42191
G1 X113.352 Y78.840 E27.47304
G1 X113.848 Y78.840 E27.49834
G1 X113.139 Y78.131 E27.54948
G1 X113.635 Y78.131 E27.57478
G1 X114.344 Y78.840 E27.62592
G1 X114.840 Y78.840 E27.65121
G1 X114.131 Y78.131 E27.70235
G1 X114.627 Y78.131 E27.72765
G1 X115.336 Y78.840 E27.77879
G1 X115.831 Y78.840 E27.80409
G1 X115.123 Y78.131 E27.85522
G1 X115.619 Y78.131 E27.88052
G1 X116.327 Y78.840 E27.93166
G1 X116.823 Y78.840 E27.95696
G1 X116.114 Y78.131 E28.00809
G1 X116.610 Y78.131 E28.03339
G1 X117.319 Y78.840 E28.08453
G1 X117.815 Y78.840 E28.10982
G1 X117.106 Y78.131 E28.16096
G1 X117.602 Y78.131 E28.18626
G1 X118.311 Y78.840 E28.23739
G1 X118.806 Y78.840 E28.26269
G1 X118.098 Y78.131 E28.31383
G1 X118.594 Y78.131 E28.33913
G1 X119.302 Y78.840 E28.39026
G1 X119.798 Y78.840 E28.41556
G1 X119.089 Y78.131 E28.46669
G1 X119.585 Y78.131 E28.49199
G1 X120.294 Y78.840 E28.54313
G1 X120.790 Y78.840 E28.56842
G1 X120.081 Y78.131 E28.61956
G1 X120.577 Y78.131 E28.64486
G1 X121.286 Y78.840 E28.69599
G1 X121.782 Y78.840 E28.72129
G1 X121.073 Y78.131 E28.77242
G1 X121.569 Y78.131 E28.79772
G1 X122.277 Y78.840 E28.84886
G1 X122.773 Y78.840 E28.87415
G1 X122.065 Y78.131 E28.92529
G1 X122.560 Y78.131 E28.95058
G1 X123.269 Y78.840 E29.00172
G1 X123.765 Y78.840 E29.02702
G1 X123.056 Y78.131 E29.07815
G1 X123.552 Y78.131 E29.10345
G1 X124.261 Y78.840 E29.15458
G1 X124.757 Y78.840 E29.17988
G1 X124.048 Y78.131 E29.23101
G1 X124.544 Y78.131 E29.25631
G1 X125.253 Y78.840 E29.30744
G1 X125.748 Y78.840 E29.33274
G1 X125.040 Y78.131 E29.38387
G1 X125.536 Y78.131 E29.40917
G1 X126.244 Y78.840 E29.46030
G1 X126.567 Y78.840 E29.47675
G1 X127.074 Y79.173 E29.50771
G1 X126.031 Y78.131 E29.58290
G1 X126.527 Y78.131 E29.60820
G1 X127.566 Y79.169 E29.68313
G1 X127.673 Y79.094 E29.68982
G1 X127.757 Y78.994 E29.69645
G1 X127.800 Y78.908 E29.70138
G1 X127.023 Y78.131 E29.75744
G1 X127.246 Y78.131 E29.76883
G1 X127.443 Y78.155 E29.77895
G1 X127.556 Y78.198 E29.78510
G1 X127.652 Y78.265 E29.79107
G1 X127.999 Y78.611 E29.81606
G1 E27.81606 F2400.00000
G92 E0
G1 X111.156 Y118.337 F7800.000
G1 E2.00000 F2400.00000
G1 F1800.000
G1 X110.474 Y117.656 E2.04840
G1 X110.474 Y117.167 E2.07291
G1 X111.558 Y118.251 E2.14986
G1 X112.151 Y118.356 E2.18014
G1 X110.956 Y117.162 E2.26501
G1 X111.444 Y117.162 E2.28952
G1 X112.745 Y118.462 E2.38188
G1 X113.338 Y118.568 E2.41216
G1 X111.932 Y117.162 E2.51202
G1 X112.421 Y117.162 E2.53653
G1 X113.932 Y118.673 E2.64389
G1 X114.526 Y118.779 E2.67417
G1 X112.909 Y117.162 E2.78903
G1 X113.397 Y117.162 E2.81354
G1 X115.119 Y118.884 E2.93590
G1 X115.713 Y118.990 E2.96618
G1 X113.885 Y117.162 E3.09603
G1 X114.373 Y117.162 E3.12054
G1 X116.307 Y119.095 E3.25789
G1 X116.900 Y119.201 E3.28818
G1 X114.861 Y117.162 E3.43303
G1 X115.349 Y117.162 E3.45754
G1 X117.494 Y119.307 E3.60989
G1 X118.088 Y119.412 E3.64017
G1 X115.837 Y117.162 E3.80001
G1 X116.325 Y117.162 E3.82453
G1 X118.681 Y119.518 E3.99187
G1 X119.275 Y119.623 E4.02215
G1 X116.813 Y117.162 E4.19700
G1 X117.301 Y117.162 E4.22151
G1 X119.869 Y119.729 E4.40385
G1 X120.462 Y119.835 E4.43413
G1 X117.789 Y117.162 E4.62397
G1 X118.278 Y117.162 E4.64848
G1 X121.056 Y119.940 E4.84582
G1 X121.650 Y120.046 E4.87610
G1 X118.766 Y117.162 E5.08094
G1 X119.254 Y117.162 E5.10545
G1 X122.243 Y120.151 E5.31779
G1 X122.837 Y120.257 E5.34807
G1 X119.742 Y117.162 E5.56790
G1 X120.230 Y117.162 E5.59241
G1 X123.431 Y120.362 E5.81975
G1 X124.024 Y120.468 E5.85003
G1 X120.718 Y117.162 E6.08486
G1 X121.206 Y117.162 E6.10937
G1 X124.618 Y120.574 E6.35170
G1 X125.212 Y120.679 E6.38198
G1 X121.694 Y117.162 E6.63181
G1 X122.182 Y117.162 E6.65632
G1 X125.805 Y120.785 E6.91364
G1 X126.399 Y120.890 E6.94392
G1 X122.670 Y117.162 E7.20875
G1 X123.158 Y117.162 E7.23326
G1 X126.993 Y120.996 E7.50558
G1 X127.586 Y121.101 E7.53586
G1 X123.646 Y117.162 E7.81568
G1 X124.135 Y117.162 E7.84019
G1 X128.180 Y121.207 E8.12751
G1 X128.774 Y121.313 E8.15779
G1 X124.623 Y117.162 E8.45261
G1 X125.111 Y117.162 E8.47712
G1 X129.367 Y121.418 E8.77944
G1 X129.961 Y121.524 E8.80972
G1 X125.599 Y117.162 E9.11953
G1 X126.087 Y117.162 E9.14404
G1 X130.555 Y121.629 E9.46136
G1 X131.148 Y121.735 E9.49164
G1 X126.575 Y117.162 E9.81645
G1 X127.063 Y117.162 E9.84096
G1 X131.742 Y121.840 E10.17327
G1 X132.336 Y121.946 E10.20355
G1 X127.551 Y117.162 E10.54336
G1 X128.039 Y117.162 E10.56787
G1 X132.929 Y122.052 E10.91517
G1 X133.601 Y122.235 E10.95012
G1 X128.527 Y117.162 E11.31043
G1 X129.015 Y117.162 E11.33494
G1 X141.877 Y130.023 E12.24837
G1 X142.170 Y129.828 E12.26606
G1 X129.503 Y117.162 E13.16568
G1 X129.992 Y117.162 E13.19019
G1 X142.464 Y129.634 E14.07600
G1 X142.730 Y129.412 E14.09340
G1 X130.480 Y117.162 E14.96346
G1 X130.968 Y117.162 E14.98797
G1 X142.997 Y129.190 E15.84229
G1 X143.240 Y128.946 E15.85962
G1 X131.456 Y117.162 E16.69660
G1 X131.944 Y117.162 E16.72111
G1 X143.480 Y128.698 E17.54044
G1 X143.702 Y128.431 E17.55785
G1 X132.432 Y117.162 E18.35826
G1 X132.920 Y117.162 E18.38277
G1 X143.915 Y128.156 E19.16364
G1 X144.114 Y127.867 E19.18127
G1 X133.408 Y117.162 E19.94160
G1 X133.896 Y117.162 E19.96611
G1 X144.299 Y127.564 E20.70495
G1 X144.473 Y127.250 E20.72298
G1 X134.384 Y117.162 E21.43951
G1 X134.872 Y117.162 E21.46402
G1 X144.630 Y126.919 E22.15701
G1 X144.775 Y126.577 E22.17569
G1 X135.360 Y117.162 E22.84437
G1 X135.849 Y117.162 E22.86888
G1 X144.901 Y126.214 E23.51181
G1 X145.013 Y125.838 E23.53151
G1 X136.337 Y117.162 E24.14773
G1 X136.825 Y117.162 E24.17224
G1 X145.104 Y125.441 E24.76025
G1 X145.173 Y125.022 E24.78156
G1 X137.313 Y117.162 E25.33984
G1 X137.801 Y117.162 E25.36436
G1 X145.225 Y124.585 E25.89162
G1 X145.237 Y124.110 E25.91552
G1 X138.289 Y117.162 E26.40900
G1 X138.800 Y117.185 E26.43471
G1 X145.226 Y123.610 E26.89105
G1 X145.172 Y123.068 E26.91839
G1 X139.339 Y117.236 E27.33265
G1 X139.931 Y117.339 E27.36283
G1 X145.050 Y122.459 E27.72642
G1 X145.011 Y122.272 E27.73603
G1 X144.847 Y121.767 E27.76269
G1 X140.613 Y117.533 E28.06340
G1 X141.292 Y117.808 E28.10019
G1 X141.473 Y117.905 E28.11052
G1 X144.804 Y121.236 E28.34709
G1 E26.34709 F2400.00000
G92 E0
G1 X141.673 Y130.307 F7800.000
G1 E2.00000 F2400.00000
G1 F1800.000
G1 X135.354 Y123.988 E2.44880
G1 X135.434 Y124.164 E2.45850
G1 X135.545 Y124.667 E2.48437
G1 X141.236 Y130.358 E2.88855
G1 X140.902 Y130.513 E2.90700
G1 X135.586 Y125.197 E3.28456
G1 X135.588 Y125.503 E3.29992
G1 X135.556 Y125.655 E3.30771
G1 X140.565 Y130.664 E3.66346
G1 X140.228 Y130.815 E3.68202
G1 X135.473 Y126.059 E4.01975
G1 X135.451 Y126.165 E4.02518
G1 X135.340 Y126.415 E4.03890
G1 X139.891 Y130.965 E4.36209
G1 X139.554 Y131.116 E4.38064
G1 X135.190 Y126.753 E4.69052
G1 X134.990 Y127.041 E4.70812
G1 X139.216 Y131.267 E5.00828
G1 X138.879 Y131.418 E5.02683
